X: 112
T:Too Young to Marry
M:4/4
L:1/8
Q:160
C:Traditoinal
S:Transcribed from "Ramona's Choice" by S.C.
R:Reel
K:D
((3ABc|:"D"d2) A2 FDFD|d2 A2 F2 A2|d2 A2 FDFD|"A"G2 E2E2 ((3ABc|"D"d2) A
2 FDFD|"G"G-FGA BcdB|!
"D"A2 B2 "A"cABc|[1"D"e2d2 d2 ((3ABc:|[2"D"e2 d2 d2 ((3efg||"D"a2)f2 "A"
gfeg|"D"f2 d2 d2 ((3efg!
|a2)f2 "G"gfeg|"A"b2e2 e2 ((3efg|"D"a2) f2 "A"gfeg|"D"f2 d2 d2 z2|"D"A2
B2 "A"cABc|"D"e2 d2 d2 z2|]
